**kern	**silbe	**harmony	**phrase	**leadinstrument	**rhyme	**timestamp	**harte
*ICvox	*	*M4/4	*	*	*	*	*M4/4
*VRlead	*	*	*	*	*	*	*
*Hstimme	*	*	*	*	*	*	*
*b:	*	*b:	*b:	*b:	*	*b:	*b:
*M4/4	*	*	*	*	*	*	*
*clefG2	*	*	*	*	*	*	*
r;	.	1r;	.	r	.	0	N.C.
=1	=1	=1	=1	=1	=1	=1	=1
*>Letter>A	*>Letter>A	*>Letter>A	*>Letter>A	*>Letter>A	*>Letter>A	*>Letter>A	*>Letter>A
*>Label>Intro	*>Label>Intro	*>Label>Intro	*>Label>Intro	*>Label>Intro	*>Label>Intro	*>Label>Intro	*>Label>Intro
1r	.	1Bmm	newline	saxophone	.	1.028	B:min7
=2	=2	=2	=2	=2	=2	=2	=2
1r	.	1GM	.	saxophone	.	2.966	G:maj(9)
=3	=3	=3	=3	=3	=3	=3	=3
1r	.	1AM	.	saxophone	.	4.903	A:maj
=4	=4	=4	=4	=4	=4	=4	=4
1r	.	2GM	.	saxophone	.	6.84	G:maj(9)
.	.	2AM	.	saxophone	.	7.809	A:maj
=5	=5	=5	=5	=5	=5	=5	=5
1r	.	1Bmm	newline	saxophone	.	8.778	B:min7
=6	=6	=6	=6	=6	=6	=6	=6
1r	.	1GM	.	saxophone	.	10.733	G:maj(9)
=7	=7	=7	=7	=7	=7	=7	=7
1r	.	1AM	.	saxophone	.	12.689	A:maj
=8	=8	=8	=8	=8	=8	=8	=8
2r	.	2GM	.	saxophone	.	14.645	G:maj(9)
4.r	.	2AM	.	saxophone	.	15.622	A:maj
[8f#	Cry-	.	.	.	.	.	.
=9	=9	=9	=9	=9	=9	=9	=9
*>Letter>B	*>Letter>B	*>Letter>B	*>Letter>B	*>Letter>B	*>Letter>B	*>Letter>B	*>Letter>B
*>Label>Verse	*>Label>Verse	*>Label>Verse	*>Label>Verse	*>Label>Verse	*>Label>Verse	*>Label>Verse	*>Label>Verse
8f#]	_	1Bm	newline	voice	.	16.6	B:min
8f#	-in'	.	.	.	.	.	.
8f#	on	.	.	.	.	.	.
8f#	the	.	.	.	.	.	.
8f#	corn-	.	.	.	.	.	.
8f#	-er	.	.	.	.	.	.
8r	.	.	.	.	.	.	.
[8f#	wait	.	.	.	.	.	.
=10	=10	=10	=10	=10	=10	=10	=10
12f#]	_	1Bm	.	voice	.	18.536	B:min
12f#	in'	.	.	.	.	.	.
12f#	in	.	.	.	.	.	.
8f#	the	.	.	.	.	.	.
4f#	rain	.	.	.	A	.	.
4g	I	.	.	.	.	.	.
[8e	swear	.	.	.	.	.	.
=11	=11	=11	=11	=11	=11	=11	=11
8e]	_	1AM	.	voice	.	20.472	A:maj
4e	I'll	.	.	.	.	.	.
8d	ne-	.	.	.	.	.	.
8c#	-ver	.	.	.	.	.	.
8d	e-	.	.	.	.	.	.
4c#	-ver	.	.	.	.	.	.
=12	=12	=12	=12	=12	=12	=12	=12
8d	wait	1AM	.	voice	.	22.409	A:maj
8c#	_	.	.	.	.	.	.
8c#	a-	.	.	.	.	.	.
4.e	-gain	.	.	.	A	.	.
8r	.	.	.	.	.	.	.
8B	You	.	.	.	.	.	.
=13	=13	=13	=13	=13	=13	=13	=13
8f#	gave	1Bm	newline	voice	.	24.345	B:min
8f#	me	.	.	.	.	.	.
8f#	your	.	.	.	.	.	.
[8f#	word	.	.	.	.	.	.
12f#]	_	.	.	.	.	.	.
12e	_	.	.	.	.	.	.
12d	_	.	.	.	.	.	.
8r	.	.	.	.	.	.	.
8B	but	.	.	.	.	.	.
=14	=14	=14	=14	=14	=14	=14	=14
4d	words	1Bm	.	voice	.	26.305	B:min
8B	to	.	.	.	.	.	.
4f#	you	.	.	.	.	.	.
4d	are	.	.	.	.	.	.
[8e	lies	.	.	.	B	.	.
=15	=15	=15	=15	=15	=15	=15	=15
8e]	_	1AM	.	voice	.	28.266	A:maj
[4.c#	_	.	.	.	.	.	.
2c#]	_	.	.	.	.	.	.
=16	=16	=16	=16	=16	=16	=16	=16
2r	.	1AM	.	voice	.	30.226	A:maj
4.r	.	.	.	.	.	.	.
[8dd	Dar-	.	.	.	.	.	.
=17	=17	=17	=17	=17	=17	=17	=17
*>Letter>C	*>Letter>C	*>Letter>C	*>Letter>C	*>Letter>C	*>Letter>C	*>Letter>C	*>Letter>C
*>Label>Prechorus	*>Label>Prechorus	*>Label>Prechorus	*>Label>Prechorus	*>Label>Prechorus	*>Label>Prechorus	*>Label>Prechorus	*>Label>Prechorus
8dd]	_	1GM	newline	voice	.	32.187	G:maj(9)
8b	_	.	.	.	.	.	.
8b	-lin'	.	.	.	.	.	.
4b	in	.	.	.	.	.	.
4a	my	.	.	.	.	.	.
8e	wild-	.	.	.	B	.	.
=18	=18	=18	=18	=18	=18	=18	=18
4f#	_	1AM	.	voice	.	34.13	A:maj
8e	-est	.	.	.	.	.	.
4.d	dreams	.	.	.	.	.	.
8r	.	.	.	.	.	.	.
8e	I	.	.	.	.	.	.
=19	=19	=19	=19	=19	=19	=19	=19
8f#	ne-	2Bmm	.	voice	.	36.074	B:min7
4d	-ver	.	.	.	.	.	.
4a	thought	.	.	.	.	.	.
.	.	2AM	.	voice	.	37.046	A:maj
4a	I'd	.	.	.	.	.	.
[8b	go	.	.	.	C	.	.
=20	=20	=20	=20	=20	=20	=20	=20
2.b]	_	1GM	.	voice	.	38.018	G:maj(9)
8b	ho	.	.	.	.	.	.
[8a	_	.	.	.	.	.	.
=21	=21	=21	=21	=21	=21	=21	=21
2a]	_	1GM	.	voice	.	39.962	G:maj(9)
8r	.	.	.	.	.	.	.
8f#	But	.	.	.	.	.	.
4f#	it's	.	.	.	.	.	.
=22	=22	=22	=22	=22	=22	=22	=22
4f#	time	2Bmm	newline	voice	.	41.905	B:min7
4f#	to	.	.	.	.	.	.
4f#	let	2AM	.	voice	.	42.872	A:maj
4f#	you	.	.	.	.	.	.
=23	=23	=23	=23	=23	=23	=23	=23
12e	know	1GM	.	voice	C	43.839	G:maj(9)
12d	_	.	.	.	.	.	.
12B	_	.	.	.	.	.	.
2d	_	.	.	.	.	.	.
8f#	ho	.	.	.	.	.	.
[8e	_	.	.	.	.	.	.
=24	=24	=24	=24	=24	=24	=24	=24
2e]	_	1AM	.	voice	.	45.772	A:maj
4r	.	.	.	.	.	.	.
8e	Go-	.	.	.	.	.	.
8e	-nna	.	.	.	.	.	.
=25	=25	=25	=25	=25	=25	=25	=25
*>Letter>D	*>Letter>D	*>Letter>D	*>Letter>D	*>Letter>D	*>Letter>D	*>Letter>D	*>Letter>D
*>Label>Chorus	*>Label>Chorus	*>Label>Chorus	*>Label>Chorus	*>Label>Chorus	*>Label>Chorus	*>Label>Chorus	*>Label>Chorus
8B	har-	1Bm	->newline	voice	.	47.706	B:min
8B	-den	.	.	.	.	.	.
4B	my	.	.	.	.	.	.
[2B	heart	.	.	.	.	.	.
=26	=26	=26	=26	=26	=26	=26	=26
2B]	_	1Bm	.	voice	.	49.655	B:min
8r	.	.	.	.	.	.	.
8d	I'm	.	.	.	.	.	.
8d	go-	.	.	.	.	.	.
8d	-nna	.	.	.	.	.	.
=27	=27	=27	=27	=27	=27	=27	=27
8c#	swa-	1AM	.	voice	.	51.604	A:maj
4c#	-llow	.	.	.	.	.	.
4.d	my	.	.	.	.	.	.
8d	tears	.	.	.	D	.	.
[8c#	_	.	.	.	.	.	.
=28	=28	=28	=28	=28	=28	=28	=28
2c#]	_	1AM	.	voice	.	53.553	A:maj
8r	.	.	.	.	.	.	.
8c#	I'm	.	.	.	.	.	.
8c#	go-	.	.	.	.	.	.
8B	-nna	.	.	.	.	.	.
=29	=29	=29	=29	=29	=29	=29	=29
4d	turn	2GM	newline	voice	.	55.502	G:maj(9)
4r	.	.	.	.	.	.	.
4e	and	2AM	.	voice	.	56.472	A:maj
4r	.	.	.	.	.	.	.
=30	=30	=30	=30	=30	=30	=30	=30
8f#	leave	2Bmm	.	voice	.	57.442	B:min7
4.a	_	.	.	.	.	.	.
8b	you	2AM	.	voice	.	58.412	A:maj
4cc#	_	.	.	.	.	.	.
[8b	_	.	.	.	.	.	.
=31	=31	=31	=31	=31	=31	=31	=31
8b]	_	1GM	.	voice	.	59.382	G:maj(9)
[4.b	here	.	.	.	D	.	.
2b_	_	.	.	.	.	.	.
=32	=32	=32	=32	=32	=32	=32	=32
2.b]	_	1GM	.	voice	.	61.322	G:maj(9)
8r	.	.	.	.	.	.	.
[8f#	All	.	.	.	.	.	.
=33	=33	=33	=33	=33	=33	=33	=33
*>Letter>B	*>Letter>B	*>Letter>B	*>Letter>B	*>Letter>B	*>Letter>B	*>Letter>B	*>Letter>B
*>Label>Verse	*>Label>Verse	*>Label>Verse	*>Label>Verse	*>Label>Verse	*>Label>Verse	*>Label>Verse	*>Label>Verse
8f#]	_	1Bm	newline	voice	.	63.261	B:min
8f#	of	.	.	.	.	.	.
4f#	my	.	.	.	.	.	.
8f#	life	.	.	.	.	.	.
8f#	I've	.	.	.	.	.	.
8f#	been	.	.	.	.	.	.
[8f#	wait-	.	.	.	A	.	.
=34	=34	=34	=34	=34	=34	=34	=34
12f#]	_	1Bm	.	voice	.	65.209	B:min
12f#	-in'	.	.	.	.	.	.
12f#	the	.	.	.	.	.	.
8f#	rain	.	.	.	A	.	.
8e	_	.	.	.	.	.	.
8r	.	.	.	.	.	.	.
8e	I've	.	.	.	.	.	.
8e	been	.	.	.	.	.	.
[8e	wait-	.	.	.	.	.	.
=35	=35	=35	=35	=35	=35	=35	=35
8e]	_	1AM	.	voice	.	67.156	A:maj
8e	-in'	.	.	.	.	.	.
8d	for	.	.	.	.	.	.
8d	a	.	.	.	.	.	.
8c#	feel-	.	.	.	.	.	.
8c#	-in'	.	.	.	.	.	.
8r	.	.	.	.	.	.	.
8c#	that	.	.	.	.	.	.
=36	=36	=36	=36	=36	=36	=36	=36
8d	ne-	1AM	.	voice	.	69.103	A:maj
4c#	-ver	.	.	.	.	.	.
8d	e-	.	.	.	.	.	.
8c#	-ver	.	.	.	.	.	.
4e	came	.	.	.	A	.	.
8f#	It	.	.	.	.	.	.
=37	=37	=37	=37	=37	=37	=37	=37
4f#	feels	1Bm	newline	voice	.	71.05	B:min
4f#	so	.	.	.	.	.	.
4f#	close	.	.	.	.	.	.
8r	.	.	.	.	.	.	.
8B	but	.	.	.	.	.	.
=38	=38	=38	=38	=38	=38	=38	=38
8f#	al-	1Bm	.	voice	.	72.991	B:min
4B	-ways	.	.	.	.	.	.
4d	dis-	.	.	.	.	.	.
4f#	-a-	.	.	.	.	.	.
[8e	-pears	.	.	.	D	.	.
=39	=39	=39	=39	=39	=39	=39	=39
8e]	_	1AM	.	voice	.	74.932	A:maj
[4.c#	_	.	.	.	.	.	.
2c#]	_	.	.	.	.	.	.
=40	=40	=40	=40	=40	=40	=40	=40
2r	.	1AM	.	voice	.	76.873	A:maj
4.r	.	.	.	.	.	.	.
[8dd	Dar-	.	.	.	.	.	.
=41	=41	=41	=41	=41	=41	=41	=41
*>Letter>C	*>Letter>C	*>Letter>C	*>Letter>C	*>Letter>C	*>Letter>C	*>Letter>C	*>Letter>C
*>Label>Prechorus	*>Label>Prechorus	*>Label>Prechorus	*>Label>Prechorus	*>Label>Prechorus	*>Label>Prechorus	*>Label>Prechorus	*>Label>Prechorus
8dd]	_	1GM	newline	voice	.	78.814	G:maj(9)
8b	_	.	.	.	.	.	.
8b	-lin'	.	.	.	.	.	.
4b	in	.	.	.	.	.	.
4a	your	.	.	.	.	.	.
8e	wild-	.	.	.	B	.	.
=42	=42	=42	=42	=42	=42	=42	=42
4f#	_	1AM	.	voice	.	80.767	A:maj
8e	-est	.	.	.	.	.	.
4.d	dreams	.	.	.	.	.	.
8r	.	.	.	.	.	.	.
8e	You	.	.	.	E	.	.
=43	=43	=43	=43	=43	=43	=43	=43
8f#	ne-	2Bmm	.	voice	.	82.721	B:min7
4d	-ver	.	.	.	.	.	.
4.a	had	.	.	.	.	.	.
.	.	2AM	.	voice	.	83.697	A:maj
8a	a	.	.	.	.	.	.
[8b	clue	.	.	.	E	.	.
=44	=44	=44	=44	=44	=44	=44	=44
2.b]	_	1GM	.	voice	.	84.674	G:maj(9)
8b	Hoo	.	.	.	E	.	.
[8a	_	.	.	.	.	.	.
=45	=45	=45	=45	=45	=45	=45	=45
2a]	_	1GM	.	voice	.	86.627	G:maj(9)
8r	.	.	.	.	.	.	.
8f#	But	.	.	.	.	.	.
4f#	it's	.	.	.	.	.	.
=46	=46	=46	=46	=46	=46	=46	=46
4f#	time	2Bmm	newline	voice	.	88.58	B:min7
4f#	you	.	.	.	E	.	.
4f#	got	2AM	.	voice	.	89.56	A:maj
4a	the	.	.	.	.	.	.
=47	=47	=47	=47	=47	=47	=47	=47
8a	news	1GM	.	voice	E	90.54	G:maj(9)
[8g	_	.	.	.	.	.	.
12g]	_	.	.	.	.	.	.
12f#	_	.	.	.	.	.	.
12e	_	.	.	.	.	.	.
8d	_	.	.	.	.	.	.
8e	_	.	.	.	.	.	.
8f#	_	.	.	.	.	.	.
[8e	_	.	.	.	.	.	.
=48	=48	=48	=48	=48	=48	=48	=48
2e]	_	1AM	.	voice	.	92.5	A:maj
8r	.	.	.	.	.	.	.
8e	I'm	.	.	.	.	.	.
8e	go-	.	.	.	.	.	.
8e	-nna	.	.	.	.	.	.
=49	=49	=49	=49	=49	=49	=49	=49
*>Letter>D	*>Letter>D	*>Letter>D	*>Letter>D	*>Letter>D	*>Letter>D	*>Letter>D	*>Letter>D
*>Label>Chorus	*>Label>Chorus	*>Label>Chorus	*>Label>Chorus	*>Label>Chorus	*>Label>Chorus	*>Label>Chorus	*>Label>Chorus
8B	har-	1Bm	->newline	voice	.	94.461	B:min
8B	-den	.	.	.	.	.	.
4B	my	.	.	.	.	.	.
[2B	heart	.	.	.	.	.	.
=50	=50	=50	=50	=50	=50	=50	=50
2B]	_	1Bm	.	voice	.	96.4	B:min
8r	.	.	.	.	.	.	.
8d	I'm	.	.	.	.	.	.
8d	go-	.	.	.	.	.	.
8d	-nna	.	.	.	.	.	.
=51	=51	=51	=51	=51	=51	=51	=51
8c#	swa-	1AM	.	voice	.	98.339	A:maj
4c#	-llow	.	.	.	.	.	.
4.d	my	.	.	.	.	.	.
8d	tears	.	.	.	D	.	.
[8c#	_	.	.	.	.	.	.
=52	=52	=52	=52	=52	=52	=52	=52
2c#]	_	1AM	.	voice	.	100.278	A:maj
4r	.	.	.	.	.	.	.
8c#	Go-	.	.	.	.	.	.
8B	-nna	.	.	.	.	.	.
=53	=53	=53	=53	=53	=53	=53	=53
4d	turn	2GM	newline	voice	.	102.217	G:maj(9)
4r	.	.	.	.	.	.	.
4e	and	2AM	.	voice	.	103.19	A:maj
4r	.	.	.	.	.	.	.
=54	=54	=54	=54	=54	=54	=54	=54
8f#	leave	2Bmm	.	voice	.	104.164	B:min7
4.a	_	.	.	.	.	.	.
8b	you	2AM	.	voice	.	105.137	A:maj
4cc#	_	.	.	.	.	.	.
[8b	_	.	.	.	.	.	.
=55	=55	=55	=55	=55	=55	=55	=55
8b]	_	1GM	.	voice	.	106.111	G:maj(9)
[4.b	here	.	.	.	D	.	.
2b_	_	.	.	.	.	.	.
=56	=56	=56	=56	=56	=56	=56	=56
2b]	_	1GM	.	voice	.	108.058	G:maj(9)
2r	.	.	.	.	.	.	.
=57	=57	=57	=57	=57	=57	=57	=57
*>Letter>E	*>Letter>E	*>Letter>E	*>Letter>E	*>Letter>E	*>Letter>E	*>Letter>E	*>Letter>E
*>Label>Solo	*>Label>Solo	*>Label>Solo	*>Label>Solo	*>Label>Solo	*>Label>Solo	*>Label>Solo	*>Label>Solo
1r	.	1Bmm	newline	saxophone	.	110.005	B:min7
=58	=58	=58	=58	=58	=58	=58	=58
1r	.	1GM	.	saxophone	.	111.963	G:maj(9)
=59	=59	=59	=59	=59	=59	=59	=59
1r	.	1AM	.	saxophone	.	113.922	A:maj
=60	=60	=60	=60	=60	=60	=60	=60
1r	.	2GM	.	saxophone	.	115.881	G:maj(9)
.	.	2AM	.	saxophone	.	116.861	A:maj
=61	=61	=61	=61	=61	=61	=61	=61
1r	.	1Bmm	newline	saxophone	.	117.84	B:min7
=62	=62	=62	=62	=62	=62	=62	=62
1r	.	1GM	.	saxophone	.	119.771	G:maj(9)
=63	=63	=63	=63	=63	=63	=63	=63
1r	.	1AM	.	saxophone	.	121.702	A:maj
=64	=64	=64	=64	=64	=64	=64	=64
1r	.	2GM	.	saxophone	.	123.633	G:maj(9)
.	.	2AM	.	saxophone	.	124.599	A:maj
=65	=65	=65	=65	=65	=65	=65	=65
*>Letter>F	*>Letter>F	*>Letter>F	*>Letter>F	*>Letter>F	*>Letter>F	*>Letter>F	*>Letter>F
*>Label>Solo	*>Label>Solo	*>Label>Solo	*>Label>Solo	*>Label>Solo	*>Label>Solo	*>Label>Solo	*>Label>Solo
1r	.	1Bm	newline	guitar	.	125.565	B:min
=66	=66	=66	=66	=66	=66	=66	=66
1r	.	1Bm	.	guitar	.	127.503	B:min
=67	=67	=67	=67	=67	=67	=67	=67
1r	.	1AM	.	guitar	.	129.441	A:maj
=68	=68	=68	=68	=68	=68	=68	=68
1r	.	1AM	.	guitar	.	131.379	A:maj
=69	=69	=69	=69	=69	=69	=69	=69
1r	.	1Bm	newline	guitar	.	133.318	B:min
=70	=70	=70	=70	=70	=70	=70	=70
1r	.	1Bm	.	guitar	.	135.255	B:min
=71	=71	=71	=71	=71	=71	=71	=71
2r	.	1AM	.	guitar	.	137.192	A:maj
4.r	.	.	.	.	.	.	.
[8dd	Dar-	.	.	.	.	.	.
=72	=72	=72	=72	=72	=72	=72	=72
8dd]	_	1AM	.	guitar	.	139.13	A:maj
8b	_	.	.	.	.	.	.
8b	-lin'	.	.	.	.	.	.
4b	in	.	.	.	.	.	.
4a	my	.	.	.	.	.	.
8e	wild-	.	.	.	B	.	.
=73	=73	=73	=73	=73	=73	=73	=73
*>Letter>C	*>Letter>C	*>Letter>C	*>Letter>C	*>Letter>C	*>Letter>C	*>Letter>C	*>Letter>C
*>Label>Prechorus	*>Label>Prechorus	*>Label>Prechorus	*>Label>Prechorus	*>Label>Prechorus	*>Label>Prechorus	*>Label>Prechorus	*>Label>Prechorus
4f#	_	1GM	newline	voice	.	141.067	G:maj(9)
8e	-est	.	.	.	.	.	.
4.d	dreams	.	.	.	.	.	.
8r	.	.	.	.	.	.	.
8e	I	.	.	.	.	.	.
=74	=74	=74	=74	=74	=74	=74	=74
8f#	ne-	1AM	.	voice	.	143.003	A:maj
4d	-ver	.	.	.	.	.	.
4a	thought	.	.	.	.	.	.
4a	I'd	.	.	.	.	.	.
[8b	go	.	.	.	C	.	.
=75	=75	=75	=75	=75	=75	=75	=75
2.b]	_	2Bmm	.	voice	.	144.94	B:min7
.	.	2AM	.	voice	.	145.908	A:maj
4r	.	.	.	.	.	.	.
=76	=76	=76	=76	=76	=76	=76	=76
2r	.	1GM	.	voice	.	146.876	G:maj(9)
8r	.	.	.	.	.	.	.
8f#	But	.	.	.	.	.	.
4f#	it's	.	.	.	.	.	.
=77	=77	=77	=77	=77	=77	=77	=77
4f#	time	1GM	.	voice	.	148.812	G:maj(9)
4f#	to	.	.	.	.	.	.
4f#	let	.	.	.	.	.	.
4a	you	.	.	.	.	.	.
=78	=78	=78	=78	=78	=78	=78	=78
8a	know	2Bmm	newline	voice	C	150.749	B:min7
[8g	_	.	.	.	.	.	.
12g]	_	.	.	.	.	.	.
12f#	_	.	.	.	.	.	.
12e	_	.	.	.	.	.	.
8d	_	2AM	.	voice	.	151.726	A:maj
8e	_	.	.	.	.	.	.
8f#	_	.	.	.	.	.	.
[8e	_	.	.	.	.	.	.
=79	=79	=79	=79	=79	=79	=79	=79
2e]	_	1GM	.	voice	.	152.704	G:maj(9)
4r	.	.	.	.	.	.	.
8e	Go-	.	.	.	.	.	.
8e	-nna	.	.	.	.	.	.
=80	=80	=80	=80	=80	=80	=80	=80
8B	har-	1AM	.	voice	.	154.66	A:maj
8B	-den	.	.	.	.	.	.
4B	my	.	.	.	.	.	.
[2B	heart	.	.	.	.	.	.
=81	=81	=81	=81	=81	=81	=81	=81
*>Letter>D	*>Letter>D	*>Letter>D	*>Letter>D	*>Letter>D	*>Letter>D	*>Letter>D	*>Letter>D
*>Label>Chorus	*>Label>Chorus	*>Label>Chorus	*>Label>Chorus	*>Label>Chorus	*>Label>Chorus	*>Label>Chorus	*>Label>Chorus
2B]	_	1Bm	->newline	voice	.	156.616	B:min
8r	.	.	.	.	.	.	.
8d	I'm	.	.	.	.	.	.
8d	go-	.	.	.	.	.	.
8d	-nna	.	.	.	.	.	.
=82	=82	=82	=82	=82	=82	=82	=82
8c#	swa-	1Bm	.	voice	.	158.557	B:min
4c#	-llow	.	.	.	.	.	.
4.d	my	.	.	.	.	.	.
8d	tears	.	.	.	D	.	.
[8c#	_	.	.	.	.	.	.
=83	=83	=83	=83	=83	=83	=83	=83
2c#]	_	1AM	.	voice	.	160.498	A:maj
8r	.	.	.	.	.	.	.
8c#	I'm	.	.	.	.	.	.
8c#	go-	.	.	.	.	.	.
8B	-nna	.	.	.	.	.	.
=84	=84	=84	=84	=84	=84	=84	=84
4d	turn	1AM	.	voice	.	162.439	A:maj
4r	.	.	.	.	.	.	.
4e	and	.	.	.	.	.	.
4r	.	.	.	.	.	.	.
=85	=85	=85	=85	=85	=85	=85	=85
8f#	leave	2GM	newline	voice	.	164.38	G:maj(9)
4.a	_	.	.	.	.	.	.
8b	you	2AM	.	voice	.	165.346	A:maj
4cc#	_	.	.	.	.	.	.
[8dd	here	.	.	.	D	.	.
=86	=86	=86	=86	=86	=86	=86	=86
12dd]	_	2Bmm	.	voice	.	166.311	B:min7
12cc#	_	.	.	.	.	.	.
[12b	_	.	.	.	.	.	.
2b]	_	.	.	.	.	.	.
.	.	2AM	.	voice	.	167.277	A:maj
8b	hee	.	.	.	.	.	.
[8a	_	.	.	.	.	.	.
=87	=87	=87	=87	=87	=87	=87	=87
8a]	_	1GM	.	voice	.	168.242	G:maj(9)
8b	_	.	.	.	.	.	.
8r	.	.	.	.	.	.	.
4.f#	I'm	.	.	.	.	.	.
8a	go-	.	.	.	.	.	.
8a	-nna	.	.	.	.	.	.
=88	=88	=88	=88	=88	=88	=88	=88
8B	har-	1GM	.	voice	.	170.173	G:maj(9)
8B	-den	.	.	.	.	.	.
4B	my	.	.	.	.	.	.
[2B	heart	.	.	.	.	.	.
=89	=89	=89	=89	=89	=89	=89	=89
*>Letter>D	*>Letter>D	*>Letter>D	*>Letter>D	*>Letter>D	*>Letter>D	*>Letter>D	*>Letter>D
*>Label>Chorus	*>Label>Chorus	*>Label>Chorus	*>Label>Chorus	*>Label>Chorus	*>Label>Chorus	*>Label>Chorus	*>Label>Chorus
4B]	_	1Bm	newline	voice	.	172.104	B:min
8r	.	.	.	.	.	.	.
4d	I'm	.	.	.	.	.	.
8d	go-	.	.	.	.	.	.
4c#	-nna	.	.	.	.	.	.
=90	=90	=90	=90	=90	=90	=90	=90
8c#	swa-	1Bm	.	voice	.	174.036	B:min
4c#	-llow	.	.	.	.	.	.
4B	my	.	.	.	.	.	.
4d	tears	.	.	.	D	.	.
[8c#	_	.	.	.	.	.	.
=91	=91	=91	=91	=91	=91	=91	=91
4c#]	_	1AM	.	voice	.	175.968	A:maj
8r	.	.	.	.	.	.	.
4f#	I'm-	.	.	.	.	.	.
8f#	-ma	.	.	.	.	.	.
8a	go-	.	.	.	.	.	.
8a	-nna	.	.	.	.	.	.
=92	=92	=92	=92	=92	=92	=92	=92
8B	har-	1AM	.	voice	.	177.899	A:maj
8B	-den	.	.	.	.	.	.
4B	my	.	.	.	.	.	.
4B	heart	.	.	.	.	.	.
12B	_	.	.	.	.	.	.
12A	_	.	.	.	.	.	.
12B	_	.	.	.	.	.	.
=93	=93	=93	=93	=93	=93	=93	=93
8d	_	1Bm	newline	voice	.	179.831	B:min
8r	.	.	.	.	.	.	.
8r	.	.	.	.	.	.	.
4f#	I'm	.	.	.	.	.	.
8g	go-	.	.	.	.	.	.
4f#	-nna	.	.	.	.	.	.
=94	=94	=94	=94	=94	=94	=94	=94
8b	swa-	1Bm	.	voice	.	181.744	B:min
4a	-llow	.	.	.	.	.	.
4f#	my	.	.	.	.	.	.
[8f#	tears	.	.	.	D	.	.
12f#]	_	.	.	.	.	.	.
12e	_	.	.	.	.	.	.
12d	_	.	.	.	.	.	.
=95	=95	=95	=95	=95	=95	=95	=95
8B	_	1AM	.	voice	.	183.657	A:maj
8d	_	.	.	.	.	.	.
8f#	_	.	.	.	.	.	.
4e	_	.	.	.	.	.	.
8g	_	.	.	.	.	.	.
4r	.	.	.	.	.	.	.
=96	=96	=96	=96	=96	=96	=96	=96
8b	Har-	1AM	.	voice	.	185.57	A:maj
8b	-den	.	.	.	.	.	.
4a	my	.	.	.	.	.	.
4f#	heart	.	.	.	.	.	.
4f#	_	.	.	.	.	.	.
=97	=97	=97	=97	=97	=97	=97	=97
*>Letter>D	*>Letter>D	*>Letter>D	*>Letter>D	*>Letter>D	*>Letter>D	*>Letter>D	*>Letter>D
*>Label>Chorus	*>Label>Chorus	*>Label>Chorus	*>Label>Chorus	*>Label>Chorus	*>Label>Chorus	*>Label>Chorus	*>Label>Chorus
12f#	_	1Bm	newline	voice	.	187.483	B:min
12e	_	.	.	.	.	.	.
12d	_	.	.	.	.	.	.
8r	.	.	.	.	.	.	.
4b	I'm	.	.	.	.	.	.
8a	go-	.	.	.	.	.	.
4f#	-nna	.	.	.	.	.	.
=98	=98	=98	=98	=98	=98	=98	=98
8a	swa-	1Bm	.	voice	.	189.388	B:min
4f#	-llow	.	.	.	.	.	.
4f#	my	.	.	.	.	.	.
[8f#	tears	.	.	.	D	.	.
12f#]	_	.	.	.	.	.	.
12e	_	.	.	.	.	.	.
[12d	_	.	.	.	.	.	.
=99	=99	=99	=99	=99	=99	=99	=99
8d]	_	1AM	.	voice	.	191.292	A:maj
4f#	_	.	.	.	.	.	.
4e	_	.	.	.	.	.	.
4d	_	.	.	.	.	.	.
8r	.	.	.	.	.	.	.
=100	=100	=100	=100	=100	=100	=100	=100
4B	No	1AM	.	voice	.	193.196	A:maj
4r	.	.	.	.	.	.	.
4d	oh	.	.	.	.	.	.
4r	.	.	.	.	.	.	.
=101	=101	=101	=101	=101	=101	=101	=101
4f#	oh	1Bm	newline	voice	.	195.1	B:min
4r	.	.	.	.	.	.	.
8b	oh	.	.	.	.	.	.
4.a	_	.	.	.	.	.	.
=102	=102	=102	=102	=102	=102	=102	=102
8f#	har-	1Bm	.	voice	.	196.982	B:min
8e	-den	.	.	.	.	.	.
8d	my	.	.	.	.	.	.
4f#	heart	.	.	.	.	.	.
4.e	_	.	.	.	.	.	.
=103	=103	=103	=103	=103	=103	=103	=103
4r	.	1AM	.	voice	.	198.863	A:maj
4e	I'm	.	.	.	.	.	.
4f#	go-	.	.	.	.	.	.
4a	-nna	.	.	.	.	.	.
=104	=104	=104	=104	=104	=104	=104	=104
8B	har-	1AM	.	voice	.	200.745	A:maj
8B	-den	.	.	.	.	.	.
4B	my	.	.	.	.	.	.
[2B	heart	.	.	.	.	.	.
=105	=105	=105	=105	=105	=105	=105	=105
*>Letter>D	*>Letter>D	*>Letter>D	*>Letter>D	*>Letter>D	*>Letter>D	*>Letter>D	*>Letter>D
*>Label>Chorus	*>Label>Chorus	*>Label>Chorus	*>Label>Chorus	*>Label>Chorus	*>Label>Chorus	*>Label>Chorus	*>Label>Chorus
4B]	_	1Bm	newline	fadeout	.	202.626	B:min
8r	.	.	.	.	.	.	.
4d	I'm	.	.	.	.	.	.
8d	go-	.	.	.	.	.	.
4c#	-nna	.	.	.	.	.	.
=106	=106	=106	=106	=106	=106	=106	=106
8c#	swa-	1Bm	.	fadeout	.	204.532	B:min
4c#	-llow	.	.	.	.	.	.
4B	my	.	.	.	.	.	.
4d	tears	.	.	.	D	.	.
[8c#	_	.	.	.	.	.	.
=107	=107	=107	=107	=107	=107	=107	=107
4c#]	_	1AM	.	fadeout	.	206.438	A:maj
8r	.	.	.	.	.	.	.
4f#	I'm-	.	.	.	.	.	.
8f#	-ma	.	.	.	.	.	.
8a	go-	.	.	.	.	.	.
8a	-nna	.	.	.	.	.	.
=108	=108	=108	=108	=108	=108	=108	=108
8B	har-	1AM	.	fadeout	.	208.344	A:maj
8B	-den	.	.	.	.	.	.
4B	my	.	.	.	.	.	.
4B	heart	.	.	.	.	.	.
12B	_	.	.	.	.	.	.
12A	_	.	.	.	.	.	.
12B	_	.	.	.	.	.	.
=109	=109	=109	=109	=109	=109	=109	=109
8d	_	1Bm	newline	voice	.	210.25	B:min
8r	.	.	.	.	.	.	.
8r	.	.	.	.	.	.	.
4f#	I'm	.	.	.	.	.	.
8g	go-	.	.	.	.	.	.
4f#	-nna	.	.	.	.	.	.
=110	=110	=110	=110	=110	=110	=110	=110
8b	swa-	1Bm	.	voice	.	211.227	B:min
4a	-llow	.	.	.	.	.	.
4f#	my	.	.	.	.	.	.
[8f#	tears	.	.	.	D	.	.
12f#]	_	.	.	.	.	.	.
12e	_	.	.	.	.	.	.
12d	_	.	.	.	.	.	.
=111	=111	=111	=111	=111	=111	=111	=111
8B	_	1AM	.	voice	.	212.204	A:maj
8d	_	.	.	.	.	.	.
8f#	_	.	.	.	.	.	.
4e	_	.	.	.	.	.	.
8g	_	.	.	.	.	.	.
4r	.	.	.	.	.	.	.
=112	=112	=112	=112	=112	=112	=112	=112
8b	Har-	1AM	.	voice	.	213.181	A:maj
8b	-den	.	.	.	.	.	.
4a	my	.	.	.	.	.	.
4f#	heart	.	.	.	.	.	.
4f#	_	.	.	.	.	.	.
r;	.	1r;	.	r	.	214.158	N.C.
r;	.	1r;	.	r	.	217.809	N.C.
*-	*-	*-	*-	*-	*-	*-	*-
!!!BillboardChartDate: 1982/03/06, 1982/02/06
!!!BillboardPeak: 3, 3
!!!BillboardWeeksOnChart: 24, 24
!!!COC: Quarterflash
!!!ENC: Nathaniel Condit-Schultz
!!!EST: Awating manual error checking and editing.
!!!OTL: Harden My Heart
!!!RDF**chordsym: original McGill chord annotation + (implied pitch class set, with bass pitch in first position)
!!!RDF**harmony: **recip + pitch class of root + harmonic quality
!!!RDF**leadinstrument: original McGill primary instrumentation annotation
!!!RDF**phrase: newline = linebreak in original McGill transcription
!!!RDF**timestamp: McGill audio timestamp in seconds
!!!RDT: 2017/01/12/
!!!SampleActualRank: 18,  4
!!!SampleID#: 608, 659
!!!SampleTargetRank: 18,  4
